svg/24/logo-microsoft-outlook.svg

<svg width="24" height="24" viewBox="0 0 24 24" fill="currentColor" xmlns="http://www.w3.org/2000/svg"><path d="M8.5625 12.0293C8.5625 12.2832 8.5332 12.5241 8.47461 12.752C8.41602 12.9798 8.32487 13.1882 8.20117 13.377C8.07747 13.5658 7.91471 13.709 7.71289 13.8066C7.51107 13.9043 7.27018 13.9596 6.99023 13.9727C6.7168 13.9727 6.48242 13.9173 6.28711 13.8066C6.0918 13.696 5.93229 13.5462 5.80859 13.3574C5.6849 13.1686 5.59375 12.957 5.53516 12.7227C5.47656 12.4883 5.44727 12.2507 5.44727 12.0098C5.44727 11.7624 5.47656 11.5215 5.53516 11.2871C5.59375 11.0527 5.6849 10.8411 5.80859 10.6523C5.93229 10.4635 6.09831 10.3138 6.30664 10.2031C6.51497 10.0924 6.75586 10.0339 7.0293 10.0273C7.31576 10.0273 7.55664 10.0859 7.75195 10.2031C7.94727 10.3203 8.10352 10.4733 8.2207 10.6621C8.33789 10.8509 8.42578 11.0625 8.48438 11.2969C8.54297 11.5312 8.56901 11.7754 8.5625 12.0293ZM22 12V19.8125C22 20.0729 21.9089 20.2943 21.7266 20.4766C21.5443 20.6589 21.3229 20.75 21.0625 20.75H7.9375C7.67708 20.75 7.45573 20.6589 7.27344 20.4766C7.09115 20.2943 7 20.0729 7 19.8125V17H2.83008C2.60221 17 2.4069 16.9186 2.24414 16.7559C2.08138 16.5931 2 16.3978 2 16.1699V7.83008C2 7.60221 2.08138 7.4069 2.24414 7.24414C2.4069 7.08138 2.60221 7 2.83008 7H8.25V4.12891C8.25 3.88151 8.33464 3.67318 8.50391 3.50391C8.67318 3.33464 8.88151 3.25 9.12891 3.25H19.8711C20.1185 3.25 20.3268 3.33464 20.4961 3.50391C20.6654 3.67318 20.75 3.88151 20.75 4.12891V11.043L21.7852 11.6387H21.7949C21.8535 11.6777 21.9023 11.7298 21.9414 11.7949C21.9805 11.86 22 11.9284 22 12ZM17 5.125V7.625H19.5V5.125H17ZM17 8.875V11.375H19.5V8.875H17ZM17 12.625V14.1484L19.5391 12.625H17ZM12.625 5.125V7.625H15.75V5.125H12.625ZM12.625 8.875V11.375H15.75V8.875H12.625ZM12.625 12.625V14.3145L14.6367 15.5645L15.75 14.9004V12.625H12.625ZM9.5 5.125V7H11.1699C11.2025 7 11.235 7.00326 11.2676 7.00977C11.3001 7.01628 11.3359 7.02604 11.375 7.03906V5.125H9.5ZM6.98047 15.3203C7.48177 15.3203 7.92773 15.2357 8.31836 15.0664C8.70898 14.8971 9.03776 14.6595 9.30469 14.3535C9.57161 14.0475 9.77344 13.6895 9.91016 13.2793C10.0469 12.8691 10.1185 12.4232 10.125 11.9414C10.125 11.4792 10.0566 11.0495 9.91992 10.6523C9.7832 10.2552 9.58464 9.91016 9.32422 9.61719C9.0638 9.32422 8.74479 9.09635 8.36719 8.93359C7.98958 8.77083 7.5599 8.6862 7.07812 8.67969C6.5638 8.67969 6.10807 8.76107 5.71094 8.92383C5.3138 9.08659 4.97852 9.32096 4.70508 9.62695C4.43164 9.93294 4.22656 10.2943 4.08984 10.7109C3.95312 11.1276 3.88151 11.5833 3.875 12.0781C3.875 12.5469 3.94661 12.9798 4.08984 13.377C4.23307 13.7741 4.43815 14.1159 4.70508 14.4023C4.97201 14.6888 5.29753 14.9134 5.68164 15.0762C6.06576 15.2389 6.4987 15.3203 6.98047 15.3203ZM8.25 19.5H18.5723L12 15.3984V16.1699C12 16.3978 11.9186 16.5931 11.7559 16.7559C11.5931 16.9186 11.3978 17 11.1699 17H8.25V19.5ZM20.75 19.3926V13.3574L15.8281 16.3066L20.75 19.3926Z"/></svg>

<svg xmlns="http://www.w3.org/2000/svg" width="24" height="24" fill="currentColor" viewBox="0 0 24 24">
  <path d="M8.563 12.03c0 .253-.03.494-.088.722-.059.228-.15.436-.274.625a1.197 1.197 0 0 1-.488.43 1.846 1.846 0 0 1-.723.166c-.273 0-.508-.056-.703-.166a1.374 1.374 0 0 1-.478-.45 2.06 2.06 0 0 1-.274-.634 2.968 2.968 0 0 1 0-1.436 2.06 2.06 0 0 1 .274-.635c.123-.188.29-.338.498-.449a1.6 1.6 0 0 1 .722-.176c.287 0 .528.059.723.176.195.117.352.27.469.46.117.188.205.4.263.634.059.234.085.478.079.732ZM22 12v7.813c0 .26-.091.481-.273.664a.904.904 0 0 1-.665.273H7.938a.904.904 0 0 1-.664-.273.904.904 0 0 1-.273-.665V17H2.83a.8.8 0 0 1-.586-.244A.8.8 0 0 1 2 16.17V7.83a.8.8 0 0 1 .244-.586A.8.8 0 0 1 2.83 7h5.42V4.129a.85.85 0 0 1 .254-.625.85.85 0 0 1 .625-.254H19.87a.85.85 0 0 1 .625.254.85.85 0 0 1 .254.625v6.914l1.035.596h.01a.482.482 0 0 1 .146.156c.04.065.059.133.059.205Zm-5-6.875v2.5h2.5v-2.5H17Zm0 3.75v2.5h2.5v-2.5H17Zm0 3.75v1.523l2.54-1.523H17Zm-4.375-7.5v2.5h3.125v-2.5h-3.125Zm0 3.75v2.5h3.125v-2.5h-3.125Zm0 3.75v1.69l2.012 1.25 1.113-.665v-2.275h-3.125ZM9.5 5.125V7h1.67c.033 0 .065.003.098.01a.907.907 0 0 1 .107.03V5.124H9.5ZM6.98 15.32c.502 0 .948-.084 1.338-.254.391-.169.72-.407.987-.713a3.11 3.11 0 0 0 .605-1.074c.137-.41.208-.856.215-1.338 0-.462-.068-.892-.205-1.289a3.016 3.016 0 0 0-.596-1.035c-.26-.293-.58-.52-.957-.683a3.345 3.345 0 0 0-1.289-.254c-.514 0-.97.081-1.367.244a2.702 2.702 0 0 0-1.006.703 3.016 3.016 0 0 0-.615 1.084 4.558 4.558 0 0 0-.215 1.367c0 .469.072.902.215 1.299.143.397.348.739.615 1.025.267.287.593.511.977.674a3.3 3.3 0 0 0 1.298.244Zm1.27 4.18h10.322L12 15.398v.772a.8.8 0 0 1-.244.586.8.8 0 0 1-.586.244H8.25v2.5Zm12.5-.107v-6.036l-4.922 2.95 4.922 3.086Z"/>
</svg>
